X:0872
T:Aileen Aroon,
C:Irish.
N:check somewhere else
M:3/4
L:1/8
Q:1/4=120
I: || :|
Z:Jack Campin * www.campin.me.uk * 2009
K:D
A2 B2 c2|d3  e     f2|A2 B2 c2|{c}d4   A2|\
BA`Bd e2|e2Te2 {de}f2|A2 B2 c2|   d6    ||
gf`ga g2|g2 G2     G2|fe`fg f2|   f2 A2A2|\
gf`ga g2|fefg      f2|ed`ef`ef|{f}e2 dcBA|a6|
ba`gf`ec|d3 e      f2|A2 B2 c2|   d6    |]

